X: 2
T: High Part of the Road
M: 6/8
S: http://www.thursdaycontra.com/users/spuds/tunes/jigs/HighPartRoad.abc
K: G
   A \
| "G"B3 "Am"cBc | "Bm"d2d "Am"cAG | "D"F2D  DCD |     FEF    ABc \
| "G"B3 "Am"cBc | "Bm"d2d  "C"d2e | "D7"fed cAF | "D7"AGF "G"G2 :|
|: d \
| "G"g3 def | gfg bag | "D7"f2d dcd |     fef    agf \
| "G"g3 def | gfg bag | "D7"fed cAF | "D7"AGF "G"G2 :|
